tn/arrow-up-small-outline.svg

<svg viewBox="0 0 15 15" fill="none" xmlns="http://www.w3.org/2000/svg" height="1em" width="1em">
  <path d="M5.14645 6.14645L4.79289 6.5L5.5 7.20711L5.85355 6.85355L5.14645 6.14645ZM7.5 4.5L7.85355 4.14645L7.5 3.79289L7.14645 4.14645L7.5 4.5ZM9.14645 6.85355L9.5 7.20711L10.2071 6.5L9.85355 6.14645L9.14645 6.85355ZM5.85355 6.85355L7.85355 4.85355L7.14645 4.14645L5.14645 6.14645L5.85355 6.85355ZM7.14645 4.85355L9.14645 6.85355L9.85355 6.14645L7.85355 4.14645L7.14645 4.85355ZM7 4.5V11H8V4.5H7Z" fill="black"/>
</svg>

<svg viewBox="0 0 15 15" fill="none" xmlns="http://www.w3.org/2000/svg" height="1em" width="1em">
  <path d="m5.146 6.146-.353.354.707.707.354-.353-.708-.708ZM7.5 4.5l.354-.354-.354-.353-.354.353.354.354Zm1.646 2.354.354.353.707-.707-.353-.354-.708.708Zm-3.292 0 2-2-.708-.708-2 2 .708.708Zm1.292-2 2 2 .708-.708-2-2-.708.708ZM7 4.5V11h1V4.5H7Z" fill="#000"/>
</svg>
